resources/haticons/SVG/mobile2.svg

<!-- Generated by IcoMoon.io -->
<svg version="1.1" xmlns="http://www.w3.org/2000/svg" width="24" height="24" viewBox="0 0 24 24">
<title>mobile2</title>
<path d="M18 0h-13.5c-0.825 0-1.5 0.675-1.5 1.5v21c0 0.825 0.675 1.5 1.5 1.5h13.5c0.825 0 1.5-0.675 1.5-1.5v-21c0-0.825-0.675-1.5-1.5-1.5zM11.25 22.917c-0.644 0-1.167-0.522-1.167-1.167s0.522-1.167 1.167-1.167 1.167 0.522 1.167 1.167-0.522 1.167-1.167 1.167zM18 19.5h-13.5v-16.5h13.5v16.5z"></path>
</svg>

<svg xmlns="http://www.w3.org/2000/svg" width="24" height="24"><path d="M18 0H4.5C3.675 0 3 .675 3 1.5v21c0 .825.675 1.5 1.5 1.5H18c.825 0 1.5-.675 1.5-1.5v-21C19.5.675 18.825 0 18 0zm-6.75 22.917a1.167 1.167 0 1 1 0-2.334 1.167 1.167 0 0 1 0 2.334zM18 19.5H4.5V3H18v16.5z"/></svg>
